src/lib/packages/icons/src/assets/line/arrow-left-arrow-right-square.svg

<svg width="24" height="24" viewBox="0 0 24 24" fill="none" xmlns="http://www.w3.org/2000/svg">
<path d="M17.625 2.25H6.375C3.715 2.25 2.25 3.715 2.25 6.375V17.625C2.25 20.285 3.715 21.75 6.375 21.75H17.625C20.285 21.75 21.75 20.285 21.75 17.625V6.375C21.75 3.715 20.285 2.25 17.625 2.25ZM20.25 17.625C20.25 19.465 19.465 20.25 17.625 20.25H6.375C4.535 20.25 3.75 19.465 3.75 17.625V6.375C3.75 4.535 4.535 3.75 6.375 3.75H17.625C19.465 3.75 20.25 4.535 20.25 6.375V17.625ZM8.66699 12.418C8.47499 12.418 8.28296 12.345 8.13696 12.198L6.46997 10.531C6.40097 10.462 6.34708 10.381 6.30908 10.29C6.27108 10.199 6.25098 10.101 6.25098 10.001C6.25098 9.90098 6.27208 9.80291 6.30908 9.71191C6.34708 9.62091 6.40197 9.53897 6.46997 9.46997L8.13696 7.80298C8.42996 7.50998 8.905 7.50998 9.198 7.80298C9.491 8.09598 9.491 8.57101 9.198 8.86401L8.81104 9.25098H15C15.414 9.25098 15.75 9.58698 15.75 10.001C15.75 10.415 15.414 10.751 15 10.751H8.81104L9.19702 11.137C9.49002 11.429 9.49002 11.905 9.19702 12.198C9.05102 12.345 8.85899 12.418 8.66699 12.418ZM17.75 13.998C17.75 14.098 17.7289 14.1961 17.6919 14.2871C17.6539 14.3781 17.599 14.4601 17.531 14.5291L15.864 16.196C15.718 16.342 15.525 16.416 15.334 16.416C15.142 16.416 14.95 16.343 14.804 16.196C14.511 15.903 14.511 15.428 14.804 15.135L15.1899 14.749H9C8.586 14.749 8.25 14.413 8.25 13.999C8.25 13.585 8.586 13.249 9 13.249H15.189L14.803 12.863C14.51 12.571 14.51 12.095 14.803 11.802C15.096 11.509 15.571 11.509 15.864 11.802L17.531 13.469C17.6 13.538 17.6539 13.6199 17.6919 13.7109C17.7289 13.7999 17.75 13.898 17.75 13.998Z" fill="currentColor"/>
</svg>

<svg xmlns="http://www.w3.org/2000/svg" width="24" height="24" fill="none"><path fill="currentColor" d="M17.625 2.25H6.375c-2.66 0-4.125 1.465-4.125 4.125v11.25c0 2.66 1.465 4.125 4.125 4.125h11.25c2.66 0 4.125-1.465 4.125-4.125V6.375c0-2.66-1.465-4.125-4.125-4.125Zm2.625 15.375c0 1.84-.785 2.625-2.625 2.625H6.375c-1.84 0-2.625-.785-2.625-2.625V6.375c0-1.84.785-2.625 2.625-2.625h11.25c1.84 0 2.625.785 2.625 2.625v11.25ZM8.667 12.418a.744.744 0 0 1-.53-.22L6.47 10.531a.744.744 0 0 1-.219-.53.769.769 0 0 1 .219-.531l1.667-1.667a.75.75 0 0 1 1.061 1.061l-.387.387H15a.75.75 0 0 1 0 1.5H8.811l.386.386a.75.75 0 0 1-.53 1.281Zm9.083 1.58a.769.769 0 0 1-.219.531l-1.667 1.667a.75.75 0 1 1-1.06-1.061l.386-.386H9a.75.75 0 0 1 0-1.5h6.189l-.386-.386a.75.75 0 1 1 1.061-1.061l1.667 1.667a.748.748 0 0 1 .219.529Z"/></svg>
